!!!ONB: MCCC : IJH0457_01 : Extracted Monophonic Melody
!!!COM: Haydn, Joseph
!!!OPR: String Quartet in F minor
!!!OMV: 1
!!!SCT: Hob.III:61 ; Op.55 No.2
!!!ODT: 1788///
**kern
*thru
*k[b-e-a-d-]
*f:
*clefF
*M2/4
4cc
8ff
8aa-
=1
8.gg
16ff
8ee
8ff
=2
8cc
8cc
8cc
16ff
16b
=3
4b
8cc
8b
=4
4b-
8g
8dd-
=5
8.cc
16b-
8a-
8b-
=6
8e-
8e-
8e-
16.f
32g
=7
4g
8a-
8r
=8
4cc
8ee-
8gg-
=9
8.ff
16ee-
8dd-
8dd-
=10
8cc
8cc
8a
8a
=11
4.b-
8cc
=12
4.dd-
8ee
=13
4.ff
8aa-
=14
8gg
16.ccc
32ccc
16.aa-
32aa-
16.ff
32ff
=15
4cc
4r
=16
4cc
8ff
8aa-
=17
8.gg
16ff
8ee
8ff
=18
8.ccc
16bb-
8aa
8bb-
=19
8.ddd-
16bb-
8gg-
8ff
=20
8gg-
8ff
8gg-
8aa-
=21
8.bb-
16aa-
8gg-
8ff
=22
8ee
8ee
8ff
8ff
=23
8dd-
8dd-
8cc
8b
=24
8cc
8r
8e
16.r
32e
=25
4e
8f
8r
=26
4cc
8ff
8aa
=27
8.gg
16ee
8ff
8ff
=28
8gg
8aa
8bb-
8ccc
=29
8bb-
8aa
4gg
=30
4.ff
8aa
=31
8gg
8ff
8ee
8dd
=32
8cc
8cc
8cc
16dd
16b
=33
4b
8cc
8r
=34
4b
8cc
8r
=35
4bb-
8gg
8ccc
=36
8.aa
16gg
16ff
16gg
16aa
16bb-
=37
4ccc
8aa
8ddd
=38
8ccc
8bb
8bb-
8aa
=39
8.gg
16aa
16bb-
16aa
16gg
16ff
=40
4.cc
16ff
16b
=41
4.cc
16ff
16b
=42
8.cc
16cc
16b
16cc
16dd
16cc
=43
4cc
8ff
8aa
=44
8.gg
16ee
8ff
8ff
=45
8gg
8aa
8bb-
8ccc
=46
8bb-
8aa
4gg
=47
4.bb-
8ddd
=48
8ccc
8bb-
8aa
8gg
=49
8ff
8ff
8ff
16gg
16ee
=50
4ee
8ff
8r
=51
4cc
8ff
8aa-
=52
8.gg
16ff
8ee
8ff
=53
8cc
8cc
8cc
16ff
16b
=54
4b
8cc
8b
=55
4b-
8g
8dd-
=56
8.cc
16b-
8a-
8b-
=57
8e-
8e-
8e-
16.f
32g
=58
4g
8a-
8r
=59
8.cc
16e
24f
24a-
24cc
24ff
24aa-
24ccc
=60
8aa-
16.gg
32ff
16ee
8gg
16ff
=61
16r
16cc
16r
16cc
16r
16cc
16r
16b
=62
8b
16dd
16cc
8cc
8b
=63
8.b-
32g
32a-
24b-
24dd-
24ee
24gg
24bb-
24ddd-
=64
24bb
24ccc
24gg
24aa-
24ee
24ff
24b
24cc
24g
24a-
24a
24b-
=65
24d
24e-
24f
24g-
24g
24a-
24a
24b-
24cc
24dd-
24b-
24g
=66
4g
8a-
8r
=67
24ee-
24b
24cc
24a
24cc
24ee-
24gg-
24ff
24ee-
24dd-
24ee-
24cc
=68
24ff
24cc
24dd-
24ff
24a
24b-
24ee-
24dd-
24b-
24ee-
24dd-
24b-
=69
24cc
24ee-
24gg-
24ff
24ee-
24dd-
24cc
24b-
24a
24g-
24f
24a
=70
6..b-
24f
24b-
24cc
24f
24cc
=71
6..dd-
24f
24dd-
24ee
24b-
24ee
=72
6..ff
24ee
24ff
24aa-
24ff
24b
=73
24cc
24ee
24gg
24ccc
24gg
24ee
24ccc
24bb-
24gg
24ccc
24aa-
24ff
=74
4cc
4r
=75
8.cc
16e
24f
24a-
24cc
24ff
24aa-
24ccc
=76
8aa-
16.gg
32ff
16ee
8gg
16ff
=77
8.ccc
16bb-
16aa
8ccc
16bb-
=78
8.ddd-
16bb-
16gg-
16gg-
16aa-
16ff
=79
16gg-
16gg-
16aa-
16ff
16gg-
16gg
16aa-
16aa
=80
8.bb-
16aa-
16aa-
16gg-
16gg-
16ff
=81
24ff
24ee
24gg
24bb-
24gg
24ee
24gg
24ff
24gg
24aa-
24ff
24cc
=82
16ee-
16dd-
16r
16dd-
16r
16cc
16r
16b
=83
24cc
24ee
24ff
24aa-
24ff
24cc
24a
24b-
24cc
24dd-
24b-
24e
=84
4e
8f
8r
=85
4cc
8ff
8aa
=86
8.gg
16ee
8ff
8ff
=87
8gg
8aa
8bb-
8ccc
=88
8bb-
8aa
4gg
=89
4.ff
8aa
=90
8gg
8ff
8ee
8dd
=91
8cc
8cc
8cc
16dd
16b
=92
4b
8cc
8r
=93
8.cc
16cc
16ff
16cc
16ff
16aa
=94
16gg
16gg
16bb-
16ee
16ff
16ee
16ff
16ff#
=95
16gg
16gg#
16aa
16bb-
16bb
16ccc
16ddd
16ccc
=96
8bb-
8aa
8gg
8r
=97
8.ff
48gg
48ff
48ee
16ff
16gg
16aa
16aa
=98
16gg
16ff#
16r
16ff
16r
16ee
16r
16dd
=99
32cc
32ee
32gg
32bb
32ccc
32gg
32eee
32ccc
32ggg
32eee
32ggg
32eee
16.fff
32bb
=100
4ddd
8ccc
8r
=101
8.bb-
48ccc
48bb-
48aa
16gg
16aa
16bb-
16ccc
=102
8.aa
16gg
16ff
32aa
32gg
32bb-
32aa
32ccc
32bb-
=103
8.ccc
16bb-
24aa
24bb-
24bb
24ccc
24ccc#
24ddd
=104
8ccc
8bb
8bb-
8aa
=105
8.gg
16aa
16bb-
16aa
16gg
16ff
=106
4.cc
16ff
16b
=107
4.cc
24ff
24dd
24b
=108
8.cc
16cc
16b
16cc
16dd
16cc
=109
8.cc
16cc
16ff
16cc
16ff
16aa
=110
16gg
16gg
16bb-
16ee
16ff
16ee
16ff
16ff#
=111
16gg
16gg#
16aa
16bb-
16bb
16ccc
16ddd
16ccc
=112
8bb-
8aa
8gg
8r
=113
8.bb-
48ccc
48bb-
48aa
16bb-
16ccc
16ddd
16ddd
=114
16ccc
16bb
16r
16bb-
16r
16aa
16r
16gg
=115
32ff
32aa
32ccc
32aa
32ff
32cc
32a
32f
8c
8e
=116
4e
8f
8r
=117
4cc
8ff
8aa-
=118
8.gg
16ff
8ee
8ff
=119
8cc
8cc
8cc
16ff
16b
=120
4b
8cc
8b
=121
4b-
8g
8dd-
=122
8.cc
16b-
8a-
8b-
=123
8e-
8e-
8e-
16.f
32g
=124
4g
8a-
8r
=125
4cc
8ee-
8gg-
=126
8.ff
16ee-
8dd-
8dd-
=127
8cc
8cc
8a
8a
=128
4.b-
8cc
=129
4.dd-
8ee
=130
4.ff
8aa-
=131
16gg
16ccc
16bb
16ccc
16aa-
16ccc
16aa-
16ff
=132
4cc
4r
=133
4cc
8ff
8aa-
=134
8.gg
16ff
8ee
8ff
=135
8.ccc
16bb-
8aa
8bb-
=136
8.ddd-
16bb-
8gg-
8ff
=137
8gg-
8ff
8gg-
8aa-
=138
8.bb-
16aa-
8gg-
8ff
=139
8ee
8ee
8ff
8ff
=140
8dd-
8dd-
8cc
8b
=141
8cc
8r
8e
16.r
32e
=142
4e
8f
8r
=143
4cc
8ff
8aa
=144
8.gg
16ee
8ff
8ff
=145
8gg
8aa
8bb-
8ccc
=146
8bb-
8aa
4gg
=147
4.ff
8aa
=148
8gg
8ff
8ee
8dd
=149
8cc
8cc
8cc
16dd
16b
=150
4b
8cc
8r
=151
2r
=152
32ccc
32ddd
32ccc
32ddd
32ccc
32bb-
32aa
32gg
8ff
8r
=153
16r
32ddd
32ccc
16r
32ddd
32ccc
16r
32ddd
32ccc
16r
32ddd
32ccc
=154
32r
32ccc
32fff
32eee
32fff
32ccc
32aa
32ff
8ccc
8r
=155
32r
32aa
32bb
32ccc#
32ddd
32eee
32fff
32ggg
16aaa
16aaa
16aaa
16aaa
=156
16r
16ggg
16r
16fff
16r
16eee
16r
16ddd
=157
32ccc
32gg
32ccc
32eee
32ggg
32eee
32ggg
32eee
32ggg
32eee
32ggg
32eee
16.fff
32bb
=158
4ddd
8ccc
8r
=159
2r
=160
32ccc
32ddd
32ccc
32ddd
32ccc
32ddd
32ccc
32bb-
16aa
16bb-
16ccc
16ddd
=161
32eee-
32ddd
32eee-
32ddd
32eee-
32fff
32eee-
32ddd
16ccc
16bb-
16aa
16ddd
=162
16r
16ccc
16r
16bb
16r
16bb-
16r
16aa
=163
32r
32ccc#
32ddd
32ccc#
32ddd
32ccc#
32ddd
32ccc#
16ddd
16ccc
32bb-
32aa
32gg
32ff
=164
8ccc
32aa
32gg
32ff
32gg
8aa
16fff
16bb
=165
8ccc
32aa
32gg
32ff
32gg
8aa
16fff
16bb
=166
4ccc
4r
=167
2r
=168
32ccc
32ddd
32ccc
32ddd
32ccc
32bb-
32aa
32gg
8ff
8r
=169
16r
32ddd
32ccc
16r
32ddd
32ccc
16r
32ddd
32ccc
16r
32ddd
32ccc
=170
32r
32ccc
32fff
32eee
32fff
32ccc
32aa
32ff
8ccc
8r
=171
32r
32dd
32ee
32ff#
32gg
32aa
32bb-
32ccc
16ddd
16ddd
16ddd
16ddd
=172
16r
16ccc
16r
16bb-
16r
16aa
16r
16gg
=173
32ff
32cc
32ff
32aa
32ccc
32aa
32ccc
32aa
32ccc
32aa
32ccc
32aa
16.bb-
32ee
=174
4gg
8ff
8r
=175
4bb-
8gg
8ccc
=176
8.aa
16gg
16ff
16gg
16aa
16bb-
=177
4ccc
8aa
8ddd
=178
8ccc
8bb
8bb-
8aa
=179
8.gg
16aa
16bb-
16aa
16gg
16ff
=180
4.cc
16ff
16b
=181
4.cc
16ff
16b
=182
8.cc
16cc
16b
16cc
16dd
16cc
=183
4cc
8ff
8aa
=184
8.gg
16ee
8ff
8ff
=185
8gg
8aa
8bb-
8ccc
=186
8bb-
8aa
4gg
=187
4.bb-
8ddd
=188
8ccc
8bb-
8aa
8gg
=189
8ff
8ff
8ff
16.gg
32ee
=190
8ff
4.r
=191
4cc
8gg
8bb-
=192
8.aa
16gg
8ff
8ff
=193
16ee
16ff
16gg
16aa
16bb-
16ccc
16ddd
16eee
=194
8fff
8aaa
8cccc
8r
=195
4c
8g
8b-
=196
8.a
16g
8f
8f
=197
16e
16f
16g
16a
16b-
16a
16b-
16g
=198
8f
4r
16.b-
32g
=199
8f
4r
32b-
32a
32b-
32g
=200
8f
8..r
32cc
32b-
32a
32b-
32g
=201
8f
8r
8f
16.r
32f
=202
8f
4.r
==
*-
